X:1
T:Saskatchewan
M:3/4
L:1/4
K:F
 C| F3/4 F/4 F G| A3/4 A/4 A A| G3/4 c/4 B E| G3/4 F/4 F C| F3/4 F/4 F G|\
 A3/4 A/4 A A| G3/4 c/4 B E| G3/4 F/4 F c3/4 A/4| G3/4 G/4 G c3/4 G/4|\
 A3/4 A/4 A c| d3/4 c/4 B G| c3/4 B/4 A A| G3/4 _G/4 =G A| B2 G| A3/4 _A/4 =A3/4 A/4 B3/4 =B/4|\
 c2 c| d3/4 _d/4 =d B| c3/4 =B/4 c A| G3/4 c/4 B E| G3/4 F/4 F||
